app/src/main/assets/luts/hasselblad_portrait.cube
TITLE "Generated by Resolve"
LUT_3D_SIZE 33
0.00146487 0.0259861 0.0495155
0.00202945 0.0250095 0.0489204
0.002533 0.0242771 0.0485084
0.0030518 0.0235142 0.0480659
0.00369268 0.0223545 0.0472725
0.00593576 0.0204318 0.0458381
0.0171664 0.0175784 0.0435798
0.0348821 0.0167239 0.0417487
0.053727 0.0200046 0.0390173
0.0761578 0.0205234 0.0379644
0.108309 0.030869 0.0392157
0.145266 0.0392462 0.0392004
0.193103 0.0496071 0.0327459
0.258961 0.064744 0.0241703
0.340658 0.0807202 0.013611
0.439933 0.0970169 0
0.556008 0.112306 0
0.673136 0.118868 0
0.789288 0.127718 0
0.892622 0.134127 0
0.985092 0.145495 0
1 0.161685 0
1 0.170153 0
1 0.176394 0
1 0.176471 0
1 0.176471 0
1 0.176471 0
1 0.176471 0
1 0.176471 0
1 0.176471 0
1 0.176471 0
1 0.176471 0
1 0.176471 0
0.00138857 0.0296635 0.0504921
0.00221256 0.0285649 0.0498817
0.00257877 0.0277562 0.0493477
0.00294499 0.0268559 0.0487221
0.00340276 0.0255436 0.0477455
0.00453193 0.0232395 0.0458991
0.0156558 0.0209659 0.0441901
0.0332494 0.0182956 0.0421607
0.0525063 0.0200351 0.0390173
0.0746624 0.0200351 0.0379187
0.106676 0.0303349 0.0392157
0.146212 0.0394598 0.0390936
0.192889 0.0495613 0.0327916
0.260273 0.0650645 0.0240635
0.343694 0.0814221 0.0133822
0.444785 0.0977188 0
0.564034 0.113375 0
0.685527 0.119692 0
0.807523 0.130159 0
0.912902 0.135683 0
0.991928 0.148898 0
1 0.165545 0
1 0.172259 0
1 0.176471 0
1 0.176471 0
1 0.176471 0
1 0.176471 0
1 0.176471 0
1 0.176471 0
1 0.176471 0
1 0.176471 0
1 0.176471 0
1 0.176471 0
0.00132753 0.0330205 0.0514687
0.00201419 0.0317082 0.050782
0.00288396 0.0308843 0.0502327
0.00325017 0.0299687 0.0496071
0.00370794 0.0286717 0.0486305
0.00442512 0.0262608 0.0467689
0.0142214 0.0242008 0.0447089
0.0320134 0.0209354 0.0427558
0.0522621 0.0203098 0.0392309
0.0749981 0.0201267 0.0379797
0.107836 0.0307164 0.0392157
0.148379 0.0399481 0.0388495
0.198993 0.050782 0.0315709
0.270619 0.0673228 0.0228733
0.359869 0.0851606 0.0121309
0.466255 0.100786 0
0.592493 0.117174 0
0.71809 0.121859 0
0.84242 0.133333 0
0.947341 0.139406 0
1 0.155276 0
1 0.168627 0
1 0.175494 0
1 0.176471 0
1 0.176471 0
1 0.176471 0
1 0.176471 0
1 0.176471 0
1 0.176471 0
1 0.176471 0
1 0.176471 0
1 0.176471 0
1 0.176471 0
0.00123598 0.036286 0.0522774
0.00177005 0.0348211 0.051606
0.00265507 0.0340124 0.0510872
0.00355535 0.0331731 0.0505226
0.00401312 0.0319371 0.0495918
0.00474556 0.0296483 0.047837
0.0137636 0.0277562 0.045655
0.0313115 0.0243229 0.0436713
0.052781 0.0221256 0.0400854
0.0768597 0.0207065 0.0381323
0.111467 0.0317388 0.0392157
0.154772 0.0413672 0.0381476
0.209812 0.0529488 0.0294041
0.287846 0.0701915 0.0200046
0.385534 0.08925 0.00730907
0.504616 0.10573 0
0.637491 0.117647 0
0.769375 0.125277 0
0.888472 0.133806 0
0.987045 0.146456 0
1 0.164965 0
1 0.171954 0
1 0.176471 0
1 0.176471 0
1 0.176471 0
1 0.176471 0
1 0.176471 0
1 0.176471 0
1 0.176471 0
1 0.176471 0
1 0.176471 0
1 0.176471 0
1 0.176471 0
0.00105287 0.0400854 0.0529641
0.0015259 0.0385443 0.0522774
0.00231937 0.037705 0.0518349
0.00326543 0.0370184 0.0514534
0.0043946 0.0359197 0.0507362
0.00514229 0.0337377 0.049073
0.0139925 0.0321355 0.0471809
0.0304112 0.0288396 0.0448463
0.0540627 0.0251316 0.0406806
0.0809949 0.0222019 0.0376593
0.117662 0.0331121 0.0392157
0.163394 0.0432898 0.0371862
0.224903 0.0562295 0.0270085
0.311986 0.0742199 0.0159762
0.420127 0.0941939 0
0.549462 0.111437 0
0.682811 0.119509 0
0.814786 0.131121 0
0.927428 0.136797 0
0.998169 0.152026 0
1 0.167666 0
1 0.17499 0
1 0.176471 0
1 0.176471 0
1 0.176471 0
1 0.176471 0
1 0.176471 0
1 0.176471 0
1 0.176471 0
1 0.176471 0
1 0.176471 0
1 0.176471 0
1 0.176471 0
0.00047303 0.0457465 0.0533761
0.00108339 0.0442054 0.0528267
0.00166323 0.0430915 0.0525063
0.00263981 0.0426184 0.0522927
0.00387579 0.0419013 0.0519112
0.00572213 0.0401312 0.0507668
0.0138705 0.0387427 0.0493172
0.0276951 0.0356451 0.0461738
0.0534676 0.033402 0.0419623
0.0827649 0.0268711 0.0382239
0.122637 0.0343328 0.0392004
0.171771 0.0451362 0.0362554
0.240101 0.060029 0.025742
0.331014 0.0785077 0.0143587
0.443214 0.0974899 0
0.57612 0.114992 0
0.710338 0.12134 0
0.841108 0.133333 0
0.950149 0.139849 0
1 0.156771 0
1 0.169284 0
1 0.176471 0
1 0.176471 0
1 0.176471 0
1 0.176471 0
1 0.176471 0
1 0.176471 0
1 0.176471 0
1 0.176471 0
1 0.176471 0
1 0.176471 0
1 0.176471 0
1 0.176471 0
0 0.0537118 0.0526589
0 0.0533761 0.0531319
0 0.0532998 0.0537423
0.000488289 0.0528115 0.0539101
0.00183108 0.0523232 0.0537423
0.00393683 0.0509041 0.0528878
0.0120089 0.0478981 0.0511788
0.0260929 0.0464485 0.0491188
0.0487984 0.043595 0.0441596
0.0804456 0.0398718 0.0379797
0.12166 0.0386969 0.0385595
0.17229 0.0452583 0.0361944
0.242145 0.0605325 0.0255741
0.334051 0.0791943 0.0141299
0.447547 0.0981155 0
0.58172 0.11574 0
0.716838 0.121782 0
0.847059 0.133333 0
0.956847 0.140871 0
1 0.158099 0
1 0.169665 0
1 0.176471 0
1 0.176471 0
1 0.176471 0
1 0.176471 0
1 0.176471 0
1 0.176471 0
1 0.176471 0
1 0.176471 0
1 0.176471 0
1 0.176471 0
1 0.176471 0
1 0.176471 0
0 0.0657206 0.0523995
0 0.0659495 0.0531472
0 0.0667124 0.0541543
0 0.0675669 0.0552377
4.57771e-05 0.0682383 0.0561227
0.0010071 0.0675212 0.0547951
0.00619516 0.0645609 0.0529793
0.0244602 0.0591592 0.0507057
0.0436866 0.0562448 0.0473793
0.0750744 0.0573281 0.0393835
0.116579 0.0547799 0.036408
0.170184 0.0534829 0.0364233
0.239582 0.059968 0.0257877
0.332082 0.0787518 0.0142672
0.446372 0.0979477 0
0.580911 0.115618 0
0.71696 0.121782 0
0.848234 0.133333 0
0.957885 0.141039 0
1 0.158221 0
1 0.169696 0
1 0.176471 0
1 0.176471 0
1 0.176471 0
1 0.176471 0
1 0.176471 0
1 0.176471 0
1 0.176471 0
1 0.176471 0
1 0.176471 0
1 0.176471 0
1 0.176471 0
1 0.176471 0
0 0.0808728 0.0601205
0 0.0850233 0.0563821
0 0.0865644 0.0572671
0 0.0885786 0.0582589
0 0.0902876 0.0589914
7.62951e-05 0.0900587 0.058854
0.00167849 0.0872511 0.0557565
0.0149081 0.08365 0.0535897
0.0419471 0.0739147 0.048661
0.0706188 0.0684825 0.0433814
0.108782 0.0745251 0.0376898
0.164706 0.0738537 0.0352941
0.23476 0.0704967 0.0261845
0.327413 0.079942 0.0146334
0.442222 0.0973526 0
0.577829 0.115221 0
0.714275 0.121599 0
0.845747 0.133333 0
0.955673 0.140688 0
1 0.157824 0
1 0.169238 0
1 0.176471 0
1 0.176471 0
1 0.176471 0
1 0.176471 0
1 0.176471 0
1 0.176471 0
1 0.176471 0
1 0.176471 0
1 0.176471 0
1 0.176471 0
1 0.176471 0
1 0.176471 0
0 0.105104 0.0657054
0 0.109651 0.0604868
0 0.113283 0.0615549
0 0.117098 0.0626841
0 0.120119 0.0633707
0 0.121431 0.0631876
0 0.118349 0.0617075
0.00389105 0.112474 0.0594492
0.0238651 0.106676 0.0576028
0.0657969 0.0958267 0.05037
0.101228 0.0917678 0.0403906
0.15465 0.0971389 0.0372931
0.227695 0.0968185 0.0285496
0.322728 0.098909 0.0180972
0.435767 0.101839 0
0.570901 0.11429 0
0.707576 0.121157 0
0.840284 0.133333 0
0.950484 0.139895 0
1 0.15671 0
1 0.168399 0
1 0.176104 0
1 0.176471 0
1 0.176471 0
1 0.176471 0
1 0.176471 0
1 0.176471 0
1 0.176471 0
1 0.176471 0
1 0.176471 0
1 0.176471 0
1 0.176471 0
1 0.176471 0
0 0.136767 0.0703746
0 0.145556 0.0720531
0 0.150149 0.0664683
0 0.155108 0.0677653
0 0.15903 0.0686656
0 0.160204 0.0685588
0 0.157885 0.0672618
0.000244144 0.156039 0.0659953
0.00691234 0.150774 0.0640269
0.0472114 0.139818 0.0591135
0.0982071 0.1252 0.0502174
0.146044 0.124132 0.0436255
0.21799 0.131701 0.0370642
0.31075 0.128939 0.0210269
0.42533 0.127062 0.00354009
0.558709 0.126345 0
0.696986 0.125093 0
0.831891 0.133333 0
0.942397 0.138643 0
1 0.154833 0
1 0.167117 0
1 0.175402 0
1 0.176471 0
1 0.176471 0
1 0.176471 0
1 0.176471 0
1 0.176471 0
1 0.176471 0
1 0.176471 0
1 0.176471 0
1 0.176471 0
1 0.176471 0
1 0.176471 0
0 0.185626 0.0745861
0 0.196918 0.075349
0 0.202792 0.0693675
0 0.209979 0.0699474
0 0.215778 0.0703288
0 0.218463 0.0703136
0 0.218082 0.070573
0 0.215228 0.071046
0 0.20827 0.0690318
0.0166629 0.199039 0.0682841
0.0785687 0.185779 0.06215
0.143236 0.165103 0.0492714
0.203479 0.162203 0.038117
0.29424 0.175784 0.0302892
0.41088 0.172259 0.0131075
0.542153 0.164584 0
0.685039 0.157916 0
0.818677 0.151064 0
0.93225 0.144472 0
0.999008 0.154406 0
1 0.165225 0
1 0.174701 0
1 0.176471 0
1 0.176471 0
1 0.176471 0
1 0.176471 0
1 0.176471 0
1 0.176471 0
1 0.176471 0
1 0.176471 0
1 0.177127 0
1 0.178424 0
1 0.179706 0
0 0.251133 0.0747387
0 0.265202 0.0755932
0 0.274235 0.0688029
0 0.283742 0.0688029
0 0.293065 0.0686198
0 0.297444 0.0682078
0 0.296391 0.0675364
0 0.293233 0.0678874
0 0.285618 0.0680552
0 0.274464 0.0656596
0.0284123 0.263951 0.0638285
0.124529 0.24448 0.0585946
0.204593 0.218311 0.042237
0.276692 0.210437 0.0265507
0.385458 0.232898 0.0267643
0.523949 0.226642 0.000717174
0.666773 0.217533 0
0.800397 0.201526 0
0.916762 0.18912 0
0.994202 0.18497 0
1 0.18294 0
1 0.186526 0
1 0.186252 0
1 0.185214 0
1 0.184558 0
1 0.184573 0
1 0.185061 0
1 0.186206 0
1 0.189685 0
1 0.193759 0
1 0.199176 0
1 0.204623 0
1 0.210086 0
0 0.334844 0.0742046
0 0.351568 0.0740063
0 0.363256 0.0715648
0 0.375616 0.0622721
0 0.385168 0.0607919
0 0.390509 0.0595254
0 0.389624 0.0584268
0 0.385641 0.0572824
0 0.379141 0.0557412
0 0.369772 0.0578164
0 0.354055 0.0555123
0.0759136 0.338369 0.0545968
0.187442 0.315938 0.0453956
0.28304 0.281605 0.0226596
0.369024 0.267887 0.00421149
0.492912 0.298177 0.00619516
0.63769 0.293935 0
0.775311 0.280034 0
0.900069 0.263569 0
0.988769 0.249653 0
1 0.243442 0
1 0.237125 0
1 0.232181 0
1 0.228321 0
1 0.227024 0
1 0.228641 0
1 0.232425 0
1 0.237171 0
1 0.244175 0
1 0.252628 0
1 0.261173 0
1 0.270146 0
1 0.279301 0
0 0.430823 0.0595102
0 0.45066 0.0579538
0 0.464805 0.0507973
0 0.476967 0.0317082
0 0.489357 0.0288701
0 0.496559 0.0267643
0 0.496574 0.0248722
0 0.49366 0.0227665
0 0.487541 0.0210117
0 0.479271 0.0252842
0 0.464439 0.0263218
0 0.443137 0.026627
0.146029 0.418555 0.0254673
0.265522 0.393927 0.0139773
0.378332 0.356039 0
0.475715 0.335164 0
0.603098 0.377371 0
0.747387 0.374655 0
0.870512 0.358938 0
0.975341 0.342931 0
1 0.329 0
1 0.318334 0
1 0.313436 0
1 0.30811 0
1 0.306615 0
1 0.309636 0
1 0.315068 0
1 0.322469 0
1 0.330785 0
1 0.33959 0
1 0.34992 0
1 0.361425 0
1 0.372396 0
0 0.541756 0.0249332
0 0.563149 0.0193942
0 0.578576 0.0189822
0 0.592554 0.00453193
0 0.605112 0
0 0.612253 0
0 0.613443 0
0 0.610819 0
0 0.605142 0
0 0.598795 0
0 0.582437 0
0 0.563378 0.000350958
0.0908522 0.542016 0.00309758
0.235492 0.515038 0
0.364721 0.479515 0
0.482307 0.439063 0
0.582208 0.404349 0
0.705806 0.45214 0
0.83827 0.462303 0
0.946319 0.450202 0
1 0.435584 0
1 0.42359 0
1 0.413245 0
1 0.408011 0
1 0.406165 0
1 0.408911 0
1 0.415152 0
1 0.423362 0
1 0.433494 0
1 0.444984 0
1 0.45597 0
1 0.467048 0
1 0.477913 0
0 0.654704 0.000549325
0 0.677729 0.00157168
0 0.695445 0.00196841
0 0.713039 0
0 0.726467 0
0 0.734722 0
0 0.735454 0
0 0.732937 0
0 0.727291 0
0 0.717845 0
0 0.703929 0
0 0.68513 0
0.0246433 0.664286 0
0.199878 0.635874 0
0.335637 0.605005 0
0.472435 0.573068 0
0.592676 0.523873 0
0.694728 0.481483 0
0.798154 0.518807 0
0.908003 0.543755 0
0.987076 0.538094 0
1 0.528283 0
1 0.521385 0
1 0.516335 0
1 0.514382 0
1 0.517098 0
1 0.52282 0
1 0.531044 0
1 0.540795 0
1 0.550301 0
1 0.559853 0
1 0.569329 0
1 0.578576 0
0 0.773922 0
0 0.795605 0
0 0.810529 0
0 0.823713 0
0 0.837049 0
0 0.844312 0
0 0.844953 0
0 0.842344 0
0 0.836713 0
0 0.8271 0
0 0.817548 0
0 0.800977 0
0.0175479 0.776471 0
0.172915 0.752941 0
0.311147 0.725826 0
0.446418 0.690837 0
0.584421 0.656016 0
0.700282 0.605585 0
0.796201 0.554772 0
0.882902 0.578561 0
0.956786 0.606546 0
0.997589 0.617548 0
1 0.614588 0
1 0.612024 0
1 0.610025 0
1 0.61207 0
1 0.617639 0
1 0.624414 0
1 0.631556 0
1 0.638544 0
1 0.645441 0
1 0.652293 0
1 0.659251 0
0 0.880705 0
0 0.899657 0
0 0.913497 0
0 0.926787 0
0 0.938537 0
0 0.945357 0
0 0.94583 0
0 0.943084 0
0 0.937987 0
0 0.928557 0
0 0.916152 0
0 0.900084 0
0.00331121 0.878691 0
0.156786 0.854109 0
0.295537 0.82887 0
0.422248 0.800458 0
0.560769 0.769665 0
0.691173 0.729931 0
0.799039 0.680781 0
0.886763 0.626764 0
0.948379 0.627115 0
0.992203 0.65037 0
1 0.665049 0
1 0.674113 0
1 0.675578 0
1 0.676722 0
1 0.678767 0
1 0.680598 0
1 0.682658 0
1 0.684825 0
1 0.687037 0
1 0.689418 0
1 0.691585 0
0 0.976761 0
0 0.987701 0
0 0.98851 0
0 0.989273 0
0 0.989517 0
0 0.989227 0
0 0.988312 0
0 0.986404 0
0 0.984085 0
0 0.980774 0
0 0.974624 0
0 0.962982 0
0.0134279 0.948852 0
0.157641 0.93257 0
0.287541 0.914031 0
0.40885 0.890379 0
0.534005 0.857771 0
0.669459 0.828519 0
0.79057 0.789746 0
0.884321 0.746059 0
0.951095 0.695262 0
0.997848 0.677058 0
1 0.685969 0
1 0.69424 0
1 0.700664 0
1 0.700984 0
1 0.702068 0
1 0.703807 0
1 0.705791 0
1 0.708064 0
1 0.71014 0
1 0.7122 0
1 0.714549 0
0 0.994369 0
0 0.995773 0
0 0.997253 0
0 0.998718 0
0 1 0
0 1 0
0 1 0
0 1 0
0 1 0
0 1 0
0 0.998886 0
0 0.995224 0
0.0406043 0.991073 0
0.168734 0.982879 0
0.288411 0.969512 0
0.402441 0.954314 0
0.522118 0.933471 0
0.646387 0.90605 0
0.766995 0.872831 0
0.871183 0.838056 0
0.94284 0.799603 0
0.992401 0.760571 0
1 0.731548 0
1 0.725277 0
1 0.726146 0
1 0.727596 0
1 0.72903 0
1 0.731395 0
1 0.735302 0
1 0.740703 0
1 0.745754 0
1 0.750271 0
1 0.754818 0
0 1 0
0 1 0.00450141
0 1 0
0 1 0
0 1 0
0 1 0
0 1 0
0 1 0
0 1 0
0 1 0
0 1 0
0 1 0
0.0289311 1 0
0.171008 0.998978 0
0.289738 0.996551 0
0.400107 0.988754 0
0.513695 0.974578 0
0.631907 0.964385 0
0.750668 0.940185 0
0.857084 0.908827 0
0.935561 0.875776 0
0.986206 0.844327 0
1 0.812085 0
1 0.792004 0
1 0.78175 0
1 0.77847 0
1 0.781018 0
1 0.786572 0
1 0.791943 0
1 0.797116 0
1 0.802396 0
1 0.807584 0
1 0.813275 0
0 1 0.0150301
0 1 0.0192721
0 1 0.00784314
0 1 0.0114748
0 1 0.0138705
0 1 0.0141299
0 1 0.0113222
0 1 0.0065919
0 1 0
0 1 0
0 1 0
0 1 0
0.0234531 1 0
0.168032 1 0
0.289204 1 0
0.399115 1 0
0.512551 0.997024 0
0.629313 0.989136 0
0.743755 0.977554 0
0.846189 0.961151 0
0.928588 0.933349 0
0.982925 0.901549 0
1 0.877104 0
1 0.856489 0
1 0.844953 0
1 0.840681 0
1 0.841276 0
1 0.844251 0
1 0.84799 0
1 0.851957 0
1 0.855924 0
1 0.860182 0
1 0.864424 0
0 1 0.0272831
0 1 0.0180209
0 1 0.0209506
0 1 0.0237278
0 1 0.025803
0 1 0.0257115
0 1 0.0225223
0 1 0.0174105
0 1 0.00976577
0 1 0
0 1 0
0 1 0
0.0271153 1 0
0.170901 1 0
0.290578 1 0
0.400381 1 0
0.513741 1 0
0.629709 1 0
0.744854 0.996216 0
0.847776 0.98587 0
0.926253 0.967773 0
0.980911 0.944595 0
1 0.920058 0
1 0.902983 0
1 0.892058 0
1 0.886564 0
1 0.884855 0
1 0.886442 0
1 0.88864 0
1 0.89099 0
1 0.893584 0
1 0.895796 0
1 0.898222 0
0 1 0.026566
0 1 0.0287022
0 1 0.0311131
0 1 0.0333715
0 1 0.0345464
0 1 0.0337682
0 1 0.0306401
0 1 0.0251469
0 1 0.0171511
0 1 0.00636301
0 1 0
0 1 0
0.0398566 1 0
0.179629 1 0
0.297627 1 0
0.406699 1 0
0.520088 1 0
0.636561 1 0
0.750378 1 0
0.85153 0.999298 0
0.93138 0.983917 0
0.983536 0.966628 0
1 0.946593 0
1 0.928801 0
1 0.918242 0
1 0.912337 0
1 0.910094 0
1 0.910475 0
1 0.911757 0
1 0.913207 0
1 0.914565 0
1 0.915785 0
1 0.917113 0
0 1 0.035111
0 1 0.0369116
0 1 0.0389868
0 1 0.0406653
0 1 0.0415656
0 1 0.0405585
0 1 0.0366064
0 1 0.0308232
0 1 0.0223087
0 1 0.0106813
0 1 0
0 1 0
0.0626841 1 0
0.198016 1 0
0.312856 1 0
0.420706 1 0
0.535088 1 0
0.650843 1 0
0.762737 1 0
0.86096 1 0
0.941024 0.989975 0
0.989059 0.977554 0
1 0.960143 0
1 0.942596 0
1 0.931945 0
1 0.926604 0
1 0.924269 0
1 0.923812 0
1 0.924254 0
1 0.92462 0
1 0.924956 0
1 0.925292 0
1 0.925841 0
0 1 0.0420996
0 1 0.0435645
0 1 0.0450446
0 1 0.0464637
0 1 0.0470436
0 1 0.0456245
0 1 0.041413
0 1 0.0347143
0 1 0.0255894
0 1 0.0135805
0 1 0
0 1 0
0.091371 1 0
0.221073 1 0
0.332555 1 0
0.440879 1 0
0.555108 1 0
0.670481 1 0
0.779477 1 0
0.875151 1 0
0.954726 0.990509 0
0.993271 0.98088 0
1 0.965576 0
1 0.948806 0
1 0.938018 0
1 0.932876 0
1 0.930739 0
1 0.929747 0
1 0.929717 0
1 0.929686 0
1 0.929656 0
1 0.929625 0
1 0.929854 0
0 1 0.0478065
0 1 0.0487831
0 1 0.0501106
0 1 0.0513161
0 1 0.0515908
0 1 0.0498207
0 1 0.0451209
0 1 0.0379339
0 1 0.0280766
