app/src/main/assets/luts/hasselblad_portrait.cube
TITLE "Generated by Resolve"
LUT_3D_SIZE 9
0.00146487 0.0259861 0.0495155
0.00369268 0.0223545 0.0472725
0.053727 0.0200046 0.0390173
0.193103 0.0496071 0.0327459
0.556008 0.112306 0
0.985092 0.145495 0
1 0.176471 0
1 0.176471 0
1 0.176471 0
0.00105287 0.0400854 0.0529641
0.0043946 0.0359197 0.0507362
0.0540627 0.0251316 0.0406806
0.224903 0.0562295 0.0270085
0.682811 0.119509 0
1 0.167666 0
1 0.176471 0
1 0.176471 0
1 0.176471 0
0 0.0808728 0.0601205
0 0.0902876 0.0589914
0.0419471 0.0739147 0.048661
0.23476 0.0704967 0.0261845
0.714275 0.121599 0
1 0.169238 0
1 0.176471 0
1 0.176471 0
1 0.176471 0
0 0.251133 0.0747387
0 0.293065 0.0686198
0 0.285618 0.0680552
0.204593 0.218311 0.042237
0.666773 0.217533 0
1 0.18294 0
1 0.184558 0
1 0.189685 0
1 0.210086 0
0 0.654704 0.000549325
0 0.726467 0
0 0.727291 0
0.0246433 0.664286 0
0.592676 0.523873 0
0.987076 0.538094 0
1 0.514382 0
1 0.540795 0
1 0.578576 0
0 0.994369 0
0 1 0
0 1 0
0.0406043 0.991073 0
0.522118 0.933471 0
0.94284 0.799603 0
1 0.726146 0
1 0.735302 0
1 0.754818 0
0 1 0.026566
0 1 0.0345464
0 1 0.0171511
0.0398566 1 0
0.520088 1 0
0.93138 0.983917 0
1 0.918242 0
1 0.911757 0
1 0.917113 0
0 1 0.052842
0 1 0.0560311
0 1 0.0303502
0.154086 1 0
0.60032 1 0
0.978103 0.988708 0
1 0.941314 0
1 0.934493 0
1 0.933837 0
0 1 0.0759594
0 1 0.0771344
0 1 0.0361334
0.234195 1 0
0.65507 1 0
0.98883 0.985 0
1 0.942824 0
1 0.937194 0
1 0.9364 0
0.00144961 0.0290379 0.0584268
0.0065919 0.024033 0.059205
0.0524453 0.0196078 0.0486
0.19266 0.0495155 0.0328374
0.558373 0.112627 0
0.987533 0.146715 0
1 0.176471 0
1 0.176471 0
1 0.176471 0
0.00105287 0.0418402 0.0619364
0.00296025 0.0363775 0.0599069
0.0552987 0.0251316 0.0521096
0.23769 0.0594186 0.0259403
0.704311 0.120943 0
1 0.168917 0
1 0.176471 0
1 0.176471 0
1 0.176471 0
0 0.0873274 0.0666667
0 0.0949416 0.070222
0.0447089 0.0798657 0.0624704
0.24947 0.0756085 0.0249638
0.738247 0.123201 0
1 0.171664 0
1 0.176471 0
1 0.176471 0
1 0.176471 0
0 0.266148 0.0771801
0 0.310048 0.0803998
0 0.30338 0.0785382
0.21973 0.232486 0.0504158
0.689586 0.228672 0
1 0.197696 0
1 0.187823 0
1 0.199695 0
1 0.221424 0
0 0.68043 0.00184634
0 0.748913 0
0 0.748562 0
0.0392615 0.683848 0
0.61529 0.542245 0
0.997879 0.555657 0
1 0.534325 0
1 0.561288 0
1 0.597635 0
0 0.996307 0
0 1 0.010132
0 1 0
0.0661631 1 0
0.542031 0.949035 0
0.958129 0.815106 0
1 0.737926 0
1 0.74876 0
1 0.765759 0
0 1 0.0537881
0 1 0.06215
0 1 0.0420539
0.0756085 1 0
0.540246 1 0
0.949477 0.988891 0
1 0.924331 0
1 0.919646 0
1 0.922988 0
0 1 0.0899825
0 1 0.0967575
0 1 0.0558938
0.178637 1 0
0.617517 1 0
0.985245 0.987533 0
1 0.941329 0
1 0.936553 0
1 0.935927 0
0 1 0.123583
0 1 0.12929
0 1 0.0712291
0.248585 1 0
0.664561 1 0
0.990356 0.983703 0
1 0.943481 0
1 0.939223 0
1 0.938491 0
0.00180056 0.0405127 0.0916915
0.00759899 0.0321813 0.0931563
0.0443427 0.0162966 0.0811627
0.185031 0.0426947 0.0473487
0.542443 0.110491 0
0.98555 0.145708 0
1 0.176471 0
1 0.176471 0
1 0.176471 0
0.00166323 0.0534066 0.0929274
0.00354009 0.048661 0.0942702
0.0496681 0.0264439 0.0905776
0.242725 0.0524758 0.0511025
0.70724 0.121141 0
1 0.169131 0
1 0.176471 0
1 0.176471 0
1 0.176471 0
0 0.0915084 0.0986801
0 0.0999161 0.106676
0.0326696 0.0846723 0.106172
0.256962 0.0678264 0.0674907
0.743908 0.123583 0
1 0.172259 0
1 0.176471 0
1 0.176471 0
1 0.176471 0
0 0.274739 0.111818
0 0.31899 0.123644
0 0.31075 0.121675
0.223865 0.240208 0.0867323
0.699184 0.229252 0
1 0.202426 0
1 0.190249 0
1 0.204211 0
1 0.226429 0
0 0.692073 0.0713512
0 0.761501 0.0843366
0 0.760769 0.0756847
0.0400092 0.689998 0.0463722
0.624613 0.55108 0
0.998535 0.562676 0
1 0.542092 0.00125124
1 0.568246 0.000747692
1 0.60415 0.00320439
0 0.996658 0.0720073
0 1 0.120027
0 1 0.105913
0.100069 1 0.0361791
0.548165 0.95407 0
0.961028 0.819745 0
1 0.741924 0
1 0.752285 0
1 0.769192 0
0 1 0.170733
0 1 0.191226
0 1 0.176989
0.109987 1 0.0986648
0.543908 1 0
0.949996 0.990936 0
1 0.925795 0
1 0.920226 0
1 0.92256 0
0 1 0.220249
0 1 0.241276
0 1 0.217334
0.201236 1 0.149508
0.615885 1 0
0.98056 0.988205 0
1 0.945327 0
1 0.938933 0
1 0.938048 0
0 1 0.273548
0 1 0.288197
0 1 0.252979
0.258213 1 0.179019
0.656031 1 0.0114595
0.985779 0.987152 0
1 0.947707 0
1 0.942061 0
1 0.941222 0
0.000793469 0.0818189 0.188251
0.000961318 0.0766766 0.188235
0.0300755 0.0555428 0.17525
0.162951 0.0408637 0.153277
0.52781 0.0760967 0.0677348
0.976684 0.143343 0
1 0.176471 0
1 0.176471 0
1 0.176471 0
0.000442512 0.0946365 0.190967
0.00247196 0.0922866 0.196017
0.0395514 0.0690776 0.198596
0.223804 0.0476844 0.19266
0.713512 0.0501259 0.109804
1 0.162509 0.016968
1 0.170901 0
1 0.168627 0.000595102
1 0.168627 0.0259098
0.0122988 0.124315 0.182559
0.0220645 0.137392 0.203983
0.0361791 0.12282 0.214603
0.239841 0.0637217 0.219409
0.752956 0.013489 0.150958
1 0.158206 0.0639506
1 0.168627 0.0395972
1 0.165316 0.0695811
1 0.160021 0.116564
0 0.268544 0.215198
0 0.309697 0.24303
0 0.303731 0.248447
0.211551 0.25861 0.263539
0.710658 0.186633 0.202396
1 0.18735 0.141512
1 0.179858 0.122469
1 0.189944 0.156085
1 0.212543 0.201053
0 0.689647 0.256016
0 0.758648 0.292958
0 0.757916 0.295323
0.0413825 0.693919 0.283284
0.629038 0.564736 0.190707
1 0.567666 0.218662
1 0.543175 0.21442
1 0.571176 0.241443
1 0.61001 0.277699
0 0.997055 0.316304
0 1 0.357977
0 1 0.358495
0.171572 1 0.326619
0.549142 0.954299 0.276158
0.957382 0.827741 0.038941
1 0.75111 0
1 0.760693 0.00125124
1 0.777203 0.0108644
0 1 0.376715
0 1 0.405341
0 1 0.401968
0.169986 1 0.370062
0.552468 1 0.325902
0.94049 0.994232 0.10782
1 0.93138 0
1 0.925078 0
1 0.927504 0
0 1 0.426291
0 1 0.443961
0 1 0.435431
0.229831 1 0.415702
0.613275 1 0.368719
0.968139 0.992798 0.16437
1 0.95169 0
1 0.943725 0
1 0.942901 0
0 1 0.458289
0 0.999008 0.464714
0 0.999649 0.454887
0.273106 1 0.441352
0.646479 1 0.388113
0.977752 0.99173 0.178561
1 0.954467 0
1 0.947112 0
1 0.946212 0
0.0303807 0.164813 0.357565
0.0344854 0.16289 0.357626
0.0447089 0.148974 0.339178
0.172503 0.0994736 0.348089
0.461814 0.0486763 0.317906
0.971633 0.0296025 0.250477
1 0.153857 0.202823
1 0.153887 0.202533
1 0.152941 0.229587
0.0326848 0.170123 0.359548
0.0442206 0.175051 0.370748
0.0653239 0.164797 0.371359
0.261784 0.104692 0.425284
0.632685 0.0224613 0.410529
1 0.137881 0.383566
1 0.162875 0.353689
1 0.166064 0.3729
1 0.171939 0.408103
0.0477302 0.191684 0.359426
0.06392 0.203754 0.383444
0.07953 0.197116 0.390356
0.278126 0.129396 0.454353
0.67364 0.0269017 0.454963
1 0.167071 0.443015
1 0.175982 0.422065
1 0.185229 0.449805
1 0.188235 0.487953
0.14284 0.280613 0.351507
0.164355 0.307546 0.375113
0.163409 0.306035 0.379126
0.213611 0.284077 0.426413
0.649088 0.16968 0.496376
1 0.205676 0.496574
1 0.207675 0.48426
1 0.220096 0.511757
1 0.240253 0.544488
0 0.614084 0.431373
0 0.669581 0.462928
0 0.666331 0.472374
0 0.613214 0.476707
0.610849 0.598627 0.575097
0.997559 0.582101 0.577295
1 0.573297 0.574487
1 0.598917 0.601862
1 0.634562 0.635309
0 0.98587 0.465385
0 0.987152 0.46775
0 0.986847 0.468055
0 0.990036 0.481605
0.564675 0.949065 0.593072
0.941131 0.844556 0.512581
1 0.80621 0.515282
1 0.814359 0.530388
1 0.825711 0.550515
0 0.985641 0.469261
0 0.981674 0.491737
0 0.982086 0.488426
0 0.986938 0.481376
0.549142 0.999802 0.616693
0.919234 0.998993 0.575006
1 0.944259 0.490349
1 0.937728 0.494591
1 0.939681 0.508965
0 0.982376 0.535714
0 0.985519 0.597543
0 0.984085 0.56463
0 0.98439 0.50042
0.595346 0.997345 0.651118
0.939849 0.997497 0.605661
1 0.966125 0.512871
1 0.957641 0.499596
1 0.95671 0.500999
0 0.989456 0.673671
0 0.995056 0.724132
0 0.987533 0.646052
0 0.98761 0.519371
0.617456 0.996078 0.664988
0.946838 0.996643 0.614542
1 0.969299 0.519387
1 0.961395 0.501457
1 0.960357 0.500099
0.127108 0.260288 0.57142
0.12575 0.257893 0.568689
0.116991 0.23743 0.533028
0.170596 0.208042 0.507881
0.566751 0 0.613016
0.879301 0.0306859 0.540108
1 0.180743 0.531899
1 0.180911 0.531273
1 0.177127 0.548012
0.12987 0.266911 0.578195
0.141405 0.271763 0.595071
0.146777 0.261311 0.587823
0.255634 0.223606 0.597314
0.741512 0 0.697169
0.993988 0.11986 0.629862
1 0.154513 0.614633
1 0.151308 0.62211
1 0.150362 0.639567
0.134035 0.283558 0.588586
0.159869 0.300908 0.623133
0.172961 0.295415 0.622171
0.283314 0.24329 0.634821
0.785245 0 0.732387
0.998428 0.143587 0.670176
1 0.151705 0.651682
1 0.153643 0.665904
1 0.158038 0.68571
0.167956 0.357916 0.586679
0.210681 0.404868 0.636179
0.212589 0.401968 0.637491
0.254963 0.347127 0.63772
0.764126 0.176654 0.777035
1 0.183001 0.713863
1 0.180652 0.698512
1 0.19411 0.715602
1 0.213535 0.739086
0.174884 0.581064 0.634195
0.216892 0.700496 0.74229
0.229923 0.702159 0.744305
0.265309 0.591455 0.650889
0.514473 0.536294 0.697841
0.961166 0.52961 0.775814
1 0.519509 0.764843
1 0.547402 0.780591
1 0.581598 0.799496
0 0.998932 0.83859
0 1 0.882353
0 1 0.882033
0 1 0.84828
0 0.923262 0.718456
0.905241 0.869413 0.834012
1 0.878492 0.848981
1 0.886275 0.856443
1 0.899519 0.867948
0 1 0.882353
0 1 0.882353
0 1 0.882353
0 1 0.882353
0 0.999527 0.760906
0.887404 0.994919 0.848127
0.999741 0.968185 0.828733
1 0.962692 0.828077
1 0.964508 0.835523
0 1 0.882353
0 1 0.882353
0 1 0.882353
0 1 0.882353
0 1 0.819409
0.902358 0.994949 0.86595
1 0.98909 0.842969
1 0.981476 0.834424
1 0.980438 0.834043
0 1 0.882353
0 1 0.882353
0 1 0.882353
0 1 0.882353
0 1 0.837812
0.907423 0.99501 0.871321
1 0.989929 0.846433
1 0.984985 0.83563
1 0.983673 0.834424
0.31487 0.397345 0.775036
0.312581 0.395392 0.773312
0.274449 0.361425 0.74284
0.254994 0.303578 0.695109
0.52047 0.180148 0.737774
0.916365 0 0.730938
1 0.159686 0.69308
1 0.15819 0.686351
1 0.160052 0.694759
0.32752 0.40705 0.782284
0.34583 0.419989 0.793103
0.322103 0.392004 0.778759
0.340139 0.320302 0.751263
0.762448 0.0827192 0.82388
1 0.106233 0.757824
1 0.160784 0.732998
1 0.160571 0.733974
1 0.158556 0.740032
0.37467 0.452216 0.810178
0.405341 0.475624 0.826444
0.377554 0.445304 0.809964
0.376654 0.34258 0.776959
0.810391 0.0711986 0.846967
1 0.123247 0.776028
1 0.153506 0.755169
1 0.152438 0.758373
1 0.150195 0.765118
0.461509 0.562432 0.835752
0.470115 0.583139 0.831617
0.469123 0.57673 0.832288
0.436591 0.492439 0.817578
0.755199 0.255879 0.866407
1 0.163668 0.817609
1 0.165637 0.793805
1 0.177005 0.798688
1 0.202472 0.810941
0.522789 0.743877 0.809186
0.4663 0.778973 0.824369
0.468696 0.778012 0.824048
0.549249 0.74197 0.812024
0.615366 0.626108 0.844343
0.999603 0.544137 0.886809
1 0.520989 0.85626
1 0.545754 0.863523
1 0.580255 0.872038
0 1 0.882353
0 1 0.882353
0 1 0.882353
0 1 0.882353
0 0.96672 0.898039
0.859785 0.833112 0.890501
0.999924 0.852262 0.912505
1 0.862638 0.914336
1 0.877989 0.920653
0 1 0.882353
0 1 0.882353
0 1 0.882353
0 1 0.882353
0 1 0.895491
0.718853 0.999985 0.92874
0.991775 0.981506 0.94229
0.999969 0.987167 0.944198
1 0.987594 0.9449
0 1 0.882353
0 1 0.882353
0 1 0.882353
0 1 0.882353
0 1 0.898039
0.757656 1 0.932738
0.99852 0.998444 0.948409
0.998856 0.995499 0.947738
1 0.996124 0.947875
0 1 0.882353
0 1 0.882353
0 1 0.882353
0 1 0.882353
0 1 0.898039
0.768536 1 0.933867
0.998322 0.998535 0.948837
1 0.998047 0.948745
1 0.997818 0.948577
0.413489 0.472328 0.834226
0.41268 0.471489 0.833722
0.381186 0.44036 0.815991
0.341344 0.376089 0.780713
0.534493 0.235279 0.791897
0.950652 0.00598154 0.799969
1 0.15407 0.753491
1 0.157733 0.742504
1 0.157382 0.743542
0.419806 0.477699 0.837476
0.422019 0.477806 0.838148
0.390402 0.443351 0.820111
0.379431 0.35227 0.787762
0.76997 0.117067 0.84741
1 0.100221 0.782589
1 0.152758 0.757412
1 0.15407 0.753475
1 0.153689 0.75462
0.438804 0.501854 0.847059
0.440116 0.502861 0.846159
0.431449 0.486778 0.841016
0.408789 0.367437 0.803403
0.822263 0.0962387 0.863615
1 0.125322 0.792508
1 0.148302 0.770764
1 0.148394 0.770489
1 0.147326 0.773709
0.463981 0.567803 0.834684
0.472572 0.58761 0.830716
0.471031 0.580102 0.831449
0.487327 0.532113 0.848081
0.768917 0.273899 0.882582
1 0.175723 0.834821
1 0.167941 0.808759
1 0.183841 0.811414
1 0.211048 0.82034
0.51313 0.753536 0.814023
0.448646 0.786038 0.826719
0.45211 0.784649 0.826261
0.546868 0.747631 0.813916
0.655329 0.659525 0.873243
1 0.557656 0.902525
1 0.531395 0.873045
1 0.555703 0.875639
1 0.589731 0.881285
0 1 0.882353
0 1 0.882353
0 1 0.882353
0 1 0.882353
0 0.970123 0.898039
0.876081 0.85069 0.916686
1 0.858015 0.927779
1 0.867338 0.927001
1 0.882353 0.929747
0 1 0.882353
0 1 0.882353
0 1 0.882353
0 1 0.882353
0 1 0.896071
0.730175 1 0.9299
0.987015 0.978943 0.951354
0.999969 0.985885 0.952575
1 0.986267 0.952544
0 1 0.882353
0 1 0.882353
0 1 0.882353
0 1 0.882353
0 1 0.898039
0.756268 1 0.932601
0.9953 1 0.956085
0.998795 0.997299 0.958083
1 0.997894 0.958053
0 1 0.882353
0 1 0.882353
0 1 0.882353
0 1 0.882353
0 1 0.898039
0.764248 1 0.933425
0.995239 1 0.956024
0.999725 0.999771 0.958877
1 0.999695 0.958984
0.427802 0.483162 0.842664
0.42768 0.48304 0.842588
0.402579 0.456184 0.827527
0.360937 0.390509 0.796475
0.550317 0.245243 0.807843
0.962219 0.0115206 0.814404
1 0.149676 0.766644
1 0.154086 0.753429
1 0.154681 0.751629
0.432471 0.487511 0.845075
0.433005 0.486152 0.844663
0.400427 0.450614 0.826139
0.389319 0.354818 0.792935
0.786572 0.110079 0.852338
1 0.105592 0.78529
1 0.151675 0.760647
1 0.152911 0.756939
1 0.152743 0.757473
0.439277 0.502022 0.846998
0.440513 0.503258 0.845762
0.441123 0.49427 0.846616
0.418387 0.368643 0.808789
0.839628 0.0876631 0.868437
1 0.133486 0.795056
1 0.14728 0.773846
1 0.147402 0.773495
1 0.146441 0.776364
0.466056 0.572992 0.833631
0.475761 0.59295 0.829648
0.474434 0.586435 0.831235
0.500114 0.541283 0.853391
0.786297 0.278965 0.888228
1 0.187152 0.837644
1 0.174487 0.812528
1 0.192493 0.816663
1 0.221134 0.823911
0.504555 0.762112 0.818311
0.413031 0.796262 0.830457
0.422171 0.793835 0.829557
0.544137 0.754208 0.816114
0.668513 0.671321 0.880018
1 0.569512 0.904524
1 0.543679 0.877501
1 0.567864 0.879484
1 0.601419 0.88481
0 1 0.882353
0 1 0.882353
0 1 0.882353
0 1 0.882353
0 0.974243 0.898039
0.884703 0.858412 0.922148
1 0.865034 0.931258
1 0.873198 0.930175
1 0.887327 0.932677
0 1 0.882353
0 1 0.882353
0 1 0.882353
0 1 0.882353
0 1 0.896864
0.74519 1 0.931456
0.986755 0.979385 0.953155
0.999969 0.985931 0.954223
1 0.986206 0.95404
0 1 0.882353
0 1 0.882353
0 1 0.882353
0 1 0.882353
0 1 0.898039
0.759045 1 0.932891
0.995331 1 0.956115
0.997955 0.996826 0.959609
1 0.997635 0.959686
0 1 0.882353
0 1 0.882353
0 1 0.882353
0 1 0.882353
0 1 0.898039
0.763439 1 0.933333
0.995239 1 0.956024
0.999237 1 0.960021
1 1 0.960784
