app/src/main/assets/luts/hasselblad_portrait.cube
TITLE "Generated by Resolve"
LUT_3D_SIZE 5
0.00146487 0.0259861 0.0495155
0.053727 0.0200046 0.0390173
0.556008 0.112306 0
1 0.176471 0
1 0.176471 0
0 0.0808728 0.0601205
0.0419471 0.0739147 0.048661
0.714275 0.121599 0
1 0.176471 0
1 0.176471 0
0 0.654704 0.000549325
0 0.727291 0
0.592676 0.523873 0
1 0.514382 0
1 0.578576 0
0 1 0.026566
0 1 0.0171511
0.520088 1 0
1 0.918242 0
1 0.917113 0
0 1 0.0759594
0 1 0.0361334
0.65507 1 0
1 0.942824 0
1 0.9364 0
0.00180056 0.0405127 0.0916915
0.0443427 0.0162966 0.0811627
0.542443 0.110491 0
1 0.176471 0
1 0.176471 0
0 0.0915084 0.0986801
0.0326696 0.0846723 0.106172
0.743908 0.123583 0
1 0.176471 0
1 0.176471 0
0 0.692073 0.0713512
0 0.760769 0.0756847
0.624613 0.55108 0
1 0.542092 0.00125124
1 0.60415 0.00320439
0 1 0.170733
0 1 0.176989
0.543908 1 0
1 0.925795 0
1 0.92256 0
0 1 0.273548
0 1 0.252979
0.656031 1 0.0114595
1 0.947707 0
1 0.941222 0
0.0303807 0.164813 0.357565
0.0447089 0.148974 0.339178
0.461814 0.0486763 0.317906
1 0.153857 0.202823
1 0.152941 0.229587
0.0477302 0.191684 0.359426
0.07953 0.197116 0.390356
0.67364 0.0269017 0.454963
1 0.175982 0.422065
1 0.188235 0.487953
0 0.614084 0.431373
0 0.666331 0.472374
0.610849 0.598627 0.575097
1 0.573297 0.574487
1 0.634562 0.635309
0 0.985641 0.469261
0 0.982086 0.488426
0.549142 0.999802 0.616693
1 0.944259 0.490349
1 0.939681 0.508965
0 0.989456 0.673671
0 0.987533 0.646052
0.617456 0.996078 0.664988
1 0.969299 0.519387
1 0.960357 0.500099
0.31487 0.397345 0.775036
0.274449 0.361425 0.74284
0.52047 0.180148 0.737774
1 0.159686 0.69308
1 0.160052 0.694759
0.37467 0.452216 0.810178
0.377554 0.445304 0.809964
0.810391 0.0711986 0.846967
1 0.153506 0.755169
1 0.150195 0.765118
0.522789 0.743877 0.809186
0.468696 0.778012 0.824048
0.615366 0.626108 0.844343
1 0.520989 0.85626
1 0.580255 0.872038
0 1 0.882353
0 1 0.882353
0 1 0.895491
0.991775 0.981506 0.94229
1 0.987594 0.9449
0 1 0.882353
0 1 0.882353
0 1 0.898039
0.998322 0.998535 0.948837
1 0.997818 0.948577
0.427802 0.483162 0.842664
0.402579 0.456184 0.827527
0.550317 0.245243 0.807843
1 0.149676 0.766644
1 0.154681 0.751629
0.439277 0.502022 0.846998
0.441123 0.49427 0.846616
0.839628 0.0876631 0.868437
1 0.14728 0.773846
1 0.146441 0.776364
0.504555 0.762112 0.818311
0.422171 0.793835 0.829557
0.668513 0.671321 0.880018
1 0.543679 0.877501
1 0.601419 0.88481
0 1 0.882353
0 1 0.882353
0 1 0.896864
0.986755 0.979385 0.953155
1 0.986206 0.95404
0 1 0.882353
0 1 0.882353
0 1 0.898039
0.995239 1 0.956024
1 1 0.960784
